X: 40544
T: Tommy Peoples'
R: reel
M: 4/4
K: Gmajor
G2 BG cGBG|ADDE =F2 ED|GABG cABG|1 AcBA G2 G2:|2 AcBA GABc||
dBGB dBGB|ADDE =F3 B|dBGB dBGB|AcBA G3 B|
dBGB dBGB|ADDE =F3 B|dBcA BGAF|DcBA G2 G2||

